svgs/thin/boxes-packing.svg

<svg xmlns="http://www.w3.org/2000/svg" viewBox="0 0 640 512"><!--! Font Awesome Pro 6.6.0 by @fontawesome - https://fontawesome.com License - https://fontawesome.com/license (Commercial License) Copyright 2024 Fonticons, Inc. --><path d="M592 16L304 16c-17.7 0-32 14.3-32 32l0 80-16 0 0-80c0-26.5 21.5-48 48-48L592 0c26.5 0 48 21.5 48 48l0 416c0 26.5-21.5 48-48 48l-210.7 0c1.8-5 2.7-10.4 2.7-16l208 0c17.7 0 32-14.3 32-32l0-416c0-17.7-14.3-32-32-32zM549.7 322.3c3.1 3.1 3.1 8.2 0 11.3s-8.2 3.1-11.3 0L488 283.3 488 440c0 4.4-3.6 8-8 8s-8-3.6-8-8l0-156.7-50.3 50.3c-3.1 3.1-8.2 3.1-11.3 0s-3.1-8.2 0-11.3l64-64c3.1-3.1 8.2-3.1 11.3 0l64 64zM32 176c-8.8 0-16 7.2-16 16l0 64c0 8.8 7.2 16 16 16l16 0 288 0 16 0c8.8 0 16-7.2 16-16l0-64c0-8.8-7.2-16-16-16L32 176zm0 112c-17.7 0-32-14.3-32-32l0-64c0-17.7 14.3-32 32-32l320 0c17.7 0 32 14.3 32 32l0 64c0 17.7-14.3 32-32 32l0 192c0 17.7-14.3 32-32 32L64 512c-17.7 0-32-14.3-32-32l0-192zm304 0l-64 0 0 24c0 13.3-10.7 24-24 24l-112 0c-13.3 0-24-10.7-24-24l0-24-64 0 0 192c0 8.8 7.2 16 16 16l256 0c8.8 0 16-7.2 16-16l0-192zm-208 0l0 24c0 4.4 3.6 8 8 8l112 0c4.4 0 8-3.6 8-8l0-24-128 0z"/></svg>

<svg xmlns="http://www.w3.org/2000/svg" viewBox="0 0 640 512"><!--! Font Awesome Pro 6.5.2 by @fontawesome - https://fontawesome.com License - https://fontawesome.com/license (Commercial License) Copyright 2024 Fonticons, Inc. --><path d="M592 16H304c-17.7 0-32 14.3-32 32v80H256V48c0-26.5 21.5-48 48-48H592c26.5 0 48 21.5 48 48V464c0 26.5-21.5 48-48 48H381.3c1.8-5 2.7-10.4 2.7-16H592c17.7 0 32-14.3 32-32V48c0-17.7-14.3-32-32-32zM549.7 322.3c3.1 3.1 3.1 8.2 0 11.3s-8.2 3.1-11.3 0L488 283.3V440c0 4.4-3.6 8-8 8s-8-3.6-8-8V283.3l-50.3 50.3c-3.1 3.1-8.2 3.1-11.3 0s-3.1-8.2 0-11.3l64-64c3.1-3.1 8.2-3.1 11.3 0l64 64zM32 176c-8.8 0-16 7.2-16 16v64c0 8.8 7.2 16 16 16H48 336h16c8.8 0 16-7.2 16-16V192c0-8.8-7.2-16-16-16H32zm0 112c-17.7 0-32-14.3-32-32V192c0-17.7 14.3-32 32-32H352c17.7 0 32 14.3 32 32v64c0 17.7-14.3 32-32 32V480c0 17.7-14.3 32-32 32H64c-17.7 0-32-14.3-32-32l0-192zm304 0H272v24c0 13.3-10.7 24-24 24H136c-13.3 0-24-10.7-24-24V288H48V480c0 8.8 7.2 16 16 16H320c8.8 0 16-7.2 16-16V288zm-208 0v24c0 4.4 3.6 8 8 8H248c4.4 0 8-3.6 8-8V288H128z"/></svg>
